X:143
T:AIR XX. The Lass of Patie's Mill.
O:england
B:Joseph Mitchell: "The Highland Fair" (1731)
M:C|
L:1/8
K:C
G2    | E2  C2  E2 G2 |(c3d c2)G2| A2 (GE) (cA)(GE)|D6
(AG)   | E2  C2  E2 G2 |(c3d c2)G2|(AB)(cA) (Bc)(dB)|c6||
(ef)   | d2 (cd) B2(AG)| c4  G4   |(AB)(cB) (AG)FE  |D6
(e/f/g)|(fe)(dc) A2 f2 | d6     G2|(AB)(cA) (Bc)(dB)|c6|]


